svg/fluentui-system-icons/ic_fluent_battery_2_20_regular.svg

<svg width="20" height="20" viewBox="0 0 20 20" fill="none" xmlns="http://www.w3.org/2000/svg">
<path d="M13.5 5C14.8807 5 16 6.11929 16 7.5V8.33333L17.1667 8.3356C17.3184 8.3356 17.4608 8.37619 17.5833 8.4471C17.8324 8.59119 18 8.86052 18 9.16894V10.8356C18 11.144 17.8324 11.4134 17.5833 11.5574C17.4608 11.6284 17.3184 11.6689 17.1667 11.6689L16 11.6667V12.5C16 13.8807 14.8807 15 13.5 15H4.5C3.11929 15 2 13.8807 2 12.5V7.5C2 6.11929 3.11929 5 4.5 5H13.5ZM13.75 5.94604H4.5C3.85025 5.94604 3.09484 6.44178 3.00822 7.07566L3 7.19604V12.6913C3 13.3385 3.49187 13.8709 4.12219 13.9349L4.25 13.9413H13.75C14.3972 13.9413 14.9295 13.4494 14.9935 12.8191L15 12.6913V7.19604C15 6.54883 14.5081 6.01651 13.8778 5.9525L13.75 5.94604ZM4.83436 6.94867H5.16462C5.5905 6.94867 5.94194 7.26736 5.99349 7.67926L6 7.78405V12.1107C6 12.5366 5.68131 12.888 5.26941 12.9395L5.16462 12.946H4.83436C4.40848 12.946 4.05704 12.6274 4.00549 12.2155L3.99898 12.1107V7.78405C3.99898 7.35818 4.31767 7.00673 4.72957 6.95518L4.83436 6.94867H5.16462H4.83436Z" fill="#212121"/>
</svg>

<svg xmlns="http://www.w3.org/2000/svg" width="20" height="20"><path d="M13.5 5A2.5 2.5 0 0 1 16 7.5v.833l1.167.003a.833.833 0 0 1 .833.833v1.667a.833.833 0 0 1-.833.833L16 11.667v.833a2.5 2.5 0 0 1-2.5 2.5h-9A2.5 2.5 0 0 1 2 12.5v-5A2.5 2.5 0 0 1 4.5 5h9Zm.25.946H4.5c-.65 0-1.405.496-1.492 1.13L3 7.196v5.495c0 .647.492 1.18 1.122 1.244l.128.006h9.5a1.25 1.25 0 0 0 1.243-1.122l.007-.128V7.196a1.25 1.25 0 0 0-1.122-1.244l-.128-.006ZM4.834 6.949h.33c.426 0 .778.318.83.73L6 7.784v4.327a.835.835 0 0 1-.73.829l-.105.006h-.33a.835.835 0 0 1-.83-.73L4 12.11V7.784c0-.426.319-.777.73-.829l.105-.006h.33-.33Z"/></svg>
